svgs/1F48B.svg

<svg xmlns="http://www.w3.org/2000/svg" xmlns:xlink="http://www.w3.org/1999/xlink" preserveAspectRatio="none" viewBox="0 0 72 72"><defs><path id="a" fill="#E53935" d="M113.95 24.4q-6.45-4.75-18.1-8.75-12.65-4.3-24-4.95-13.2-.7-20.55 4.05-2.7 1.75-6.65 8.2-3.95 6.4-4.3 6.65-.35.25-7.8 1.4-7.45 1.2-10.1 3-7.2 4.9-11.65 17.4Q7 62.1 6.1 75.45q-.8 12.3 1.15 20.05 2 8.05 5.75 5.45 13.85-9.75 16.9-14.1 1.65-2.3 3.45-6.7Q35.75 74 37.7 69.3q1-2.3 5.5-5.6 5.2-3.9 10.25-4.9 2.45-.45 4.95-2.1 2.5-1.7 3.85-3.75 2.85-4.3 8.45-7.65 4.85-2.85 7.3-2.85 5.1 0 11.75.15 4.7.05 7.5-.6 5.15-1.15 19.5-10.2 3.85-2.4-2.8-7.4z"/><path id="b" fill="#E53935" d="M114.9 45q-9.9-.85-16.25.35-7.65 1.4-9.65 5.7-1.7 5.65-3.9 9.2-3.9 6.25-15.05 14.3-11.7 7.2-18.95 8.35-2.4.4-5.3.25-3.9-.2-4.7-.15-4.7.2-8.95 6.7-3.6 5.45-6.6 14.9-1.9 6 4.45 9.45 5.9 3.25 16.85 3.35 11 .15 22.5-2.85 12.45-3.25 21.3-9.15 8.85-5.9 16.65-16.15 7.2-9.5 11.25-19.65 4.1-10.15 3.4-16.85-.75-7.2-7.05-7.75z"/></defs><use transform="scale(.5625)" xlink:href="#a"/><use transform="scale(.5625)" xlink:href="#b"/></svg>

<svg xmlns="http://www.w3.org/2000/svg" version="1.1" xmlns:xlink="http://www.w3.org/1999/xlink" preserveAspectRatio="none" x="0px" y="0px" width="72px" height="72px" viewBox="0 0 72 72">
<defs>
<g id="Layer0_0_MEMBER_0_FILL">
<path fill="#E53935" stroke="none" d="
M 113.95 24.4
Q 107.5 19.65 95.85 15.65 83.2 11.35 71.85 10.7 58.65 10 51.3 14.75 48.6 16.5 44.65 22.95 40.7 29.35 40.35 29.6 40 29.85 32.55 31 25.1 32.2 22.45 34 15.25 38.9 10.8 51.4 7 62.1 6.1 75.45 5.3 87.75 7.25 95.5 9.25 103.55 13 100.95 26.85 91.2 29.9 86.85 31.55 84.55 33.35 80.15 35.75 74 37.7 69.3 38.7 67 43.2 63.7 48.4 59.8 53.45 58.8 55.9 58.35 58.4 56.7 60.9 55 62.25 52.95 65.1 48.65 70.7 45.3 75.55 42.45 78 42.45 83.1 42.45 89.75 42.6 94.45 42.65 97.25 42 102.4 40.85 116.75 31.8 120.6 29.4 113.95 24.4 Z"/>
</g>

<g id="Layer0_0_MEMBER_1_FILL">
<path fill="#E53935" stroke="none" d="
M 114.9 45
Q 105 44.15 98.65 45.35 91 46.75 89 51.05 87.3 56.7 85.1 60.25 81.2 66.5 70.05 74.55 58.35 81.75 51.1 82.9 48.7 83.3 45.8 83.15 41.9 82.95 41.1 83 36.4 83.2 32.15 89.7 28.55 95.15 25.55 104.6 23.65 110.6 30 114.05 35.9 117.3 46.85 117.4 57.85 117.55 69.35 114.55 81.8 111.3 90.65 105.4 99.5 99.5 107.3 89.25 114.5 79.75 118.55 69.6 122.65 59.45 121.95 52.75 121.2 45.55 114.9 45 Z"/>
</g>
</defs>

<g id="Layer_1">
<g transform="matrix( 0.5625, 0, 0, 0.5625, 0,0) ">
<use xlink:href="#Layer0_0_MEMBER_0_FILL"/>
</g>

<g transform="matrix( 0.5625, 0, 0, 0.5625, 0,0) ">
<use xlink:href="#Layer0_0_MEMBER_1_FILL"/>
</g>
</g>
</svg>
